qtvirtualkeyboard/src/virtualkeyboard/content/styles/retro/images/handwriting-110b05.svg

<?xml version="1.0" encoding="utf-8"?>
<!-- Generator: Adobe Illustrator 18.1.1, SVG Export Plug-In . SVG Version: 6.00 Build 0)  -->
<svg version="1.1" id="Layer_1" xmlns="http://www.w3.org/2000/svg" xmlns:xlink="http://www.w3.org/1999/xlink" x="0px" y="0px"
	 width="156px" height="104px" viewBox="0 0 156 104" enable-background="new 0 0 156 104" xml:space="preserve">
<g>
	<rect fill="none" width="156" height="104"/>
	<g>
		<path fill="#110B05" d="M37.6,103.3c-10.1,0-18.9-5-23.1-13.6C4.4,68.7,19.9,52.3,36.2,35c1.2-1.2,2.4-2.5,3.6-3.8
			c5.3-5.7,5.2-11.5,3.5-14.8c-1.8-3.4-5.5-4.9-10.2-4.2c-16.5,2.6-21.2,26.4-21.2,26.6L0,36.6C0.3,35.3,6.4,4.3,31.2,0.3
			c9.8-1.6,18.5,2.4,22.7,10.4c4.7,8.9,2.6,20.1-5.3,28.6c-1.2,1.3-2.4,2.6-3.6,3.8C28.3,60.9,19.1,71.6,25.4,84.5
			c3.3,6.8,11.1,7.6,16.9,6.3c9.2-2.1,19.8-11.1,19.7-29.5c-0.2-28.1,16.2-41.8,30.2-44.9c14.5-3.2,28.4,3.6,34.7,17
			c1.3,2.8,2.3,5.4,3.1,8.1c13.3,0.7,25.5,4.3,26,4.4l-3.4,11.5c-0.1,0-9.7-2.8-20.6-3.8c0.5,16.5-8.6,28.9-20.1,34.7
			c-11.9,6-24,3.8-28.9-5.2c-3.1-5.6-1.9-14.7,2.9-22.5c7.9-13,21.3-17.4,31.5-18.8c-0.4-1.2-0.9-2.4-1.4-3.4
			c-3.9-8.3-12.2-12.4-21.1-10.4c-9.7,2.2-21,12.1-20.8,33.1c0.2,25.5-15.6,38.1-29,41.3C42.5,103,40,103.3,37.6,103.3z M119.8,53.7
			c-14,1.5-20.6,8.5-23.4,12.9c-3.3,5.2-3.4,9.8-2.9,10.9c1.6,2.9,7.3,3,13,0.2C117.3,72.2,120.3,62.6,119.8,53.7z"/>
	</g>
</g>
</svg>

<?xml version="1.0" encoding="UTF-8" standalone="no"?>
<svg
   xmlns:dc="http://purl.org/dc/elements/1.1/"
   xmlns:cc="http://creativecommons.org/ns#"
   xmlns:rdf="http://www.w3.org/1999/02/22-rdf-syntax-ns#"
   xmlns:svg="http://www.w3.org/2000/svg"
   xmlns="http://www.w3.org/2000/svg"
   xmlns:sodipodi="http://sodipodi.sourceforge.net/DTD/sodipodi-0.dtd"
   xmlns:inkscape="http://www.inkscape.org/namespaces/inkscape"
   version="1.1"
   id="Layer_1"
   x="0px"
   y="0px"
   width="156"
   height="156"
   viewBox="0 0 156 156"
   enable-background="new 0 0 156 104"
   xml:space="preserve"
   sodipodi:docname="handwriting-110b05.svg"
   inkscape:version="1.0.2-2 (e86c870879, 2021-01-15)"><metadata
   id="metadata15"><rdf:RDF><cc:Work
       rdf:about=""><dc:format>image/svg+xml</dc:format><dc:type
         rdf:resource="http://purl.org/dc/dcmitype/StillImage" /><dc:title></dc:title></cc:Work></rdf:RDF></metadata><defs
   id="defs13" /><sodipodi:namedview
   pagecolor="#ffffff"
   bordercolor="#666666"
   borderopacity="1"
   objecttolerance="10"
   gridtolerance="10"
   guidetolerance="10"
   inkscape:pageopacity="0"
   inkscape:pageshadow="2"
   inkscape:window-width="1920"
   inkscape:window-height="1055"
   id="namedview11"
   showgrid="false"
   inkscape:zoom="6.6858974"
   inkscape:cx="78"
   inkscape:cy="69.948226"
   inkscape:window-x="-7"
   inkscape:window-y="-7"
   inkscape:window-maximized="1"
   inkscape:current-layer="Layer_1" />
<g
   id="g8"
   transform="translate(0,26.023835)">
	<rect
   fill="none"
   width="156"
   height="104"
   id="rect2"
   x="0"
   y="0" />
	<g
   id="g6">
		<path
   fill="#110b05"
   d="M 37.6,103.3 C 27.5,103.3 18.7,98.3 14.5,89.7 4.4,68.7 19.9,52.3 36.2,35 37.4,33.8 38.6,32.5 39.8,31.2 45.1,25.5 45,19.7 43.3,16.4 41.5,13 37.8,11.5 33.1,12.2 16.6,14.8 11.9,38.6 11.9,38.8 L 0,36.6 C 0.3,35.3 6.4,4.3 31.2,0.3 41,-1.3 49.7,2.7 53.9,10.7 c 4.7,8.9 2.6,20.1 -5.3,28.6 -1.2,1.3 -2.4,2.6 -3.6,3.8 -16.7,17.8 -25.9,28.5 -19.6,41.4 3.3,6.8 11.1,7.6 16.9,6.3 C 51.5,88.7 62.1,79.7 62,61.3 61.8,33.2 78.2,19.5 92.2,16.4 c 14.5,-3.2 28.4,3.6 34.7,17 1.3,2.8 2.3,5.4 3.1,8.1 13.3,0.7 25.5,4.3 26,4.4 l -3.4,11.5 c -0.1,0 -9.7,-2.8 -20.6,-3.8 0.5,16.5 -8.6,28.9 -20.1,34.7 -11.9,6 -24,3.8 -28.9,-5.2 -3.1,-5.6 -1.9,-14.7 2.9,-22.5 7.9,-13 21.3,-17.4 31.5,-18.8 C 117,40.6 116.5,39.4 116,38.4 112.1,30.1 103.8,26 94.9,28 c -9.7,2.2 -21,12.1 -20.8,33.1 0.2,25.5 -15.6,38.1 -29,41.3 -2.6,0.6 -5.1,0.9 -7.5,0.9 z m 82.2,-49.6 c -14,1.5 -20.6,8.5 -23.4,12.9 -3.3,5.2 -3.4,9.8 -2.9,10.9 1.6,2.9 7.3,3 13,0.2 10.8,-5.5 13.8,-15.1 13.3,-24 z"
   id="path4" />
	</g>
</g>
</svg>
